<?xml version="1.0" encoding="UTF-8"?>
<map version="1.10" tiledversion="1.11.2" orientation="orthogonal" renderorder="right-down" width="30" height="15" tilewidth="32" tileheight="32" infinite="0" nextlayerid="3" nextobjectid="13">
 <editorsettings>
  <export target="map1.lua" format="lua"/>
 </editorsettings>
 <objectgroup id="2" name="objects">
  <object id="1" x="0" y="384" width="960" height="96"/>
  <object id="2" x="864" y="256" width="96" height="128"/>
  <object id="3" x="800" y="288" width="64" height="96"/>
  <object id="4" x="736" y="320" width="64" height="64"/>
  <object id="5" x="672" y="352" width="64" height="32"/>
  <object id="6" x="480" y="128" width="128" height="64"/>
  <object id="7" x="192" y="96" width="128" height="32"/>
  <object id="8" x="288" y="224" width="64" height="32"/>
  <object id="9" x="608" y="96" width="32" height="32"/>
  <object id="10" x="768" y="64" width="32" height="32"/>
  <object id="11" x="160" y="192" width="32" height="128"/>
  <object id="12" x="0" y="-160" width="960" height="32"/>
 </objectgroup>
</map>
