<?xml version="1.0" encoding="UTF-8"?>
<map version="1.10" tiledversion="1.11.2" orientation="orthogonal" renderorder="right-down" width="30" height="15" tilewidth="32" tileheight="32" infinite="0" nextlayerid="3" nextobjectid="22">
 <objectgroup id="2" name="objects">
  <object id="1" x="0" y="448" width="960" height="32"/>
  <object id="2" x="384" y="320" width="32" height="128"/>
  <object id="3" x="384" y="192" width="32" height="32"/>
  <object id="4" x="512" y="224" width="128" height="32"/>
  <object id="5" x="448" y="352" width="64" height="32"/>
  <object id="6" x="64" y="64" width="192" height="64"/>
  <object id="7" x="736" y="128" width="32" height="32"/>
  <object id="8" x="768" y="96" width="32" height="32"/>
  <object id="9" x="800" y="64" width="64" height="32"/>
  <object id="10" x="864" y="32" width="64" height="32"/>
  <object id="11" x="928" y="0" width="32" height="32"/>
  <object id="12" x="736" y="288" width="224" height="32"/>
  <object id="13" x="608" y="256" width="32" height="64"/>
  <object id="15" x="640" y="384" width="64" height="32"/>
  <object id="21" x="0" y="-160" width="960" height="32"/>
 </objectgroup>
</map>
